icon-themes/breeze_svg/cmd/sc_hidedetail.svg

<svg viewBox="0 0 16 16" xmlns="http://www.w3.org/2000/svg"><path d="m8 2v1h2.894531l1.001953-1zm5.3125 0-11.3144531 11.294922.7148437.705078 11.2851564-11.3027344zm-5.3125 2v1h.8925781l1.0019531-1zm2.117188 4-.9980474 1h4.8808594v-1zm-1.9960942 2-.1210938.121094v.878906h2v-1zm2.8789062 0v1h1.875.125 1v-1h-1-.125zm1 3v1h2v-1z" fill="#4d4d4d"/><path d="m2 7v1h4v-1z" fill="#da4453"/></svg>

<svg viewBox="0 0 16 16" xmlns="http://www.w3.org/2000/svg">
  <path
     style="fill:#4d4d4d"
     d="M 8 2 L 8 3 L 10.894531 3 L 11.896484 2 L 8 2 z M 13.3125 2 L 1.9980469 13.294922 L 2.7128906 14 L 13.998047 2.6972656 L 13.3125 2 z M 8 4 L 8 5 L 8.8925781 5 L 9.8945312 4 L 8 4 z M 10.117188 8 L 9.1191406 9 L 14 9 L 14 8 L 10.117188 8 z M 8.1210938 10 L 8 10.121094 L 8 11 L 10 11 L 10 10 L 8.1210938 10 z M 11 10 L 11 11 L 12.875 11 L 13 11 L 14 11 L 14 10 L 13 10 L 12.875 10 L 11 10 z M 12 13 L 12 14 L 14 14 L 14 13 L 12 13 z "
     />
  <path
     style="fill:#da4453"
     d="M 2,7 V 8 H 6 V 7 Z"
     />
</svg>
